X:1
T:The Last Great Day
T:The Last Great Day
T:Barney Elliott Warren
T:Daniel Sidney Warner, 1893
T:Public Domain Courtesy of the Cyber Hymnal™
T:Public Domain Courtesy of the Cyber Hymnal™
C:Barney Elliott Warren
Z:Public Domain
Z:Courtesy of the Cyber Hymnal™
%%score ( 1 2 ) ( 3 4 )
L:1/8
Q:1/4=96
M:3/4
K:Eb
V:1 treble 
V:2 treble 
V:3 bass 
V:4 bass 
V:1
 [GB]2 | [Ac][GB] [EG]2 [B,E]2 | C[CE] [CE]2 E2 | [DF][DF] [DF]2 (E[DF]) | ([EG] [GB]3) [GB]2 | %5
w: 1.~The|earth shall melt with|fer- vent heat, The|heav- ens pass a- *|way, * And|
w: 2.~The|trump will sound, the|Lord re- turn, And|time no long- er *|stay, * The|
w: 3.~The|el- e- ments that|now com- pose The|ball on which we *|stay, * To|
w: 4.~So,|all who make this|world their god, Can|here no long- er *|stay; * Their|
w: 5.~The|quick and dead, o’er|land and sea, Will|leave their mor- tal *|clay; * And|
w: 6.~The|Church of God no|more shall need, This|poor ter- res- trial *|home; * For|
 [Ac][GB] [EG]2 [B,E]2 | C[CE] [CE]2 [Ec][Ec] | [EG]4 !fermata![DF]2 | E4 || %9
w: all man- kind their|doom shall meet, In that|last great|day.|
w: world in judg- ment|flames con- sume, In that|last great|day.|
w: smoke and va- por|must dis- solve, In that|last great|day.|
w: fond- est hopes will|all have fled, In that|last great|day.|
w: put on im- mor-|tal- i- ty, In that|last great|day.|
w: she shall dwell with|Christ, her head, At the|last great|day.|
[M:4/4]"^Refrain" [GB][GB] | [Ac]2 [Ac]2 A2 [Ac]2 | [Ac][GB][GB][EG] [GB]2 [EG][EG] | %12
w: |||
w: |||
w: Oh, that|last great day, is|com- ing ve- ry soon, ’Tis the|
w: |||
w: |||
w: |||
 [DF]2 [EG]2 [FA]2 [EG][DF] | [EG]2 [FA]2 !fermata![GB]2 [GB][GB] | [Ac]2 [Ac]2 [ce]2 [Bd][Ac] | %15
w: |||
w: |||
w: judg- ment day, and the|lost shall weep; ’Tis the|crown- ing day, and the|
w: |||
w: |||
w: |||
 [GB]2 [GB]2 [EG]2 [Ac][Ac] | [EG]4 [DF]4 | !fermata!E4 |] %18
w: |||
w: |||
w: saints shall greet In that|last great|day.|
w: |||
w: |||
w: |||
V:2
 x2 | x6 | C x2 E2 x | x4 E x | x6 | x6 | C x5 | x6 | E4 ||[M:4/4] x2 | x4 A2 x2 | x8 | x8 | x8 | %14
 x8 | x8 | x8 | E4 |] %18
V:3
 [E,E]2 | [E,E][E,E] [E,B,]2 [E,G,]2 | [A,,A,][A,,A,] [A,,A,]2 [A,,C]2 | %3
 [B,,B,][B,,B,] [B,,B,]2 B,2 | (B, E3) [E,E]2 | [E,E][E,E] [E,B,]2 [E,G,]2 | %6
 [A,,A,][A,,A,] [A,,A,]2 [A,,A,][A,,C] | [B,,B,]4 !fermata![B,,A,]2 | [E,G,]4 || %9
[M:4/4] [E,E][E,E] | [A,E]2 [A,E]2 [A,C]2 [A,E]2 | [E,E][E,E][E,E][E,B,] [E,E]2 [E,B,][E,B,] | %12
 [B,,B,]2 [B,,B,]2 [B,,B,]2 [B,,B,][B,,B,] | [E,B,]2 [E,B,]2 [E,E]2 [E,E][E,E] | %14
 [A,E]2 [A,E]2 [A,E]2 [A,E][A,E] | [E,E]2 [E,E]2 [E,B,]2 [A,,E][A,,E] | [B,,B,]4 [B,,A,]4 | %17
 !fermata![E,G,]4 |] %18
V:4
 x2 | x6 | x6 | x4 (C,D,) | E,4 x2 | x6 | x6 | x6 | x4 ||[M:4/4] x2 | x8 | x8 | x8 | x8 | x8 | x8 | %16
 x8 | x4 |] %18

